Hatter-kde/actions/symbolic/tool-filters-symbolic.svg

<?xml version="1.0" encoding="UTF-8"?>
<svg width="16" height="16" version="1.1" xmlns="http://www.w3.org/2000/svg">
 <path d="m1 1v14h5 1v-1h-1v-1h1v-1h-1v-1h1v-1h-1v-1h1v-1h-1v-1h1v-1h-1v-1h1v-1h-1v-1h1v-1h-1v-1h-5zm6 1h1v-1h-1v1zm1 0v1h1v-1h-1zm1 0h1v-1h-1v1zm1 0v1h1v-1h-1zm0 1h-1v1h1v-1zm0 1v1h1v-1h-1zm0 1h-1v1h1v-1zm0 1v1h1v-1h-1zm0 1h-1v1h1v-1zm0 1v1h1v-1h-1zm0 1h-1v1h1v-1zm0 1v1h1v-1h-1zm0 1h-1v1h1v-1zm0 1v1h1v-1h-1zm0 1h-1v1h1v-1zm0 1v1h1v-1h-1zm-1 0h-1v1h1v-1zm-1 0v-1h-1v1h1zm0-1h1v-1h-1v1zm0-1v-1h-1v1h1zm0-1h1v-1h-1v1zm0-1v-1h-1v1h1zm0-1h1v-1h-1v1zm0-1v-1h-1v1h1zm0-1h1v-1h-1v1zm0-1v-1h-1v1h1zm0-1h1v-1h-1v1zm0-1v-1h-1v1h1z" fill="#363636"/>
 <path d="m11 1h4v14h-4z" fill="#363636" opacity=".3"/>
</svg>

<svg xmlns="http://www.w3.org/2000/svg" width="16" height="16" version="1.1">
 <path style="fill:#363636" d="M 1 1 L 1 15 L 6 15 L 7 15 L 7 14 L 6 14 L 6 13 L 7 13 L 7 12 L 6 12 L 6 11 L 7 11 L 7 10 L 6 10 L 6 9 L 7 9 L 7 8 L 6 8 L 6 7 L 7 7 L 7 6 L 6 6 L 6 5 L 7 5 L 7 4 L 6 4 L 6 3 L 7 3 L 7 2 L 6 2 L 6 1 L 1 1 z M 7 2 L 8 2 L 8 1 L 7 1 L 7 2 z M 8 2 L 8 3 L 9 3 L 9 2 L 8 2 z M 9 2 L 10 2 L 10 1 L 9 1 L 9 2 z M 10 2 L 10 3 L 11 3 L 11 2 L 10 2 z M 10 3 L 9 3 L 9 4 L 10 4 L 10 3 z M 10 4 L 10 5 L 11 5 L 11 4 L 10 4 z M 10 5 L 9 5 L 9 6 L 10 6 L 10 5 z M 10 6 L 10 7 L 11 7 L 11 6 L 10 6 z M 10 7 L 9 7 L 9 8 L 10 8 L 10 7 z M 10 8 L 10 9 L 11 9 L 11 8 L 10 8 z M 10 9 L 9 9 L 9 10 L 10 10 L 10 9 z M 10 10 L 10 11 L 11 11 L 11 10 L 10 10 z M 10 11 L 9 11 L 9 12 L 10 12 L 10 11 z M 10 12 L 10 13 L 11 13 L 11 12 L 10 12 z M 10 13 L 9 13 L 9 14 L 10 14 L 10 13 z M 10 14 L 10 15 L 11 15 L 11 14 L 10 14 z M 9 14 L 8 14 L 8 15 L 9 15 L 9 14 z M 8 14 L 8 13 L 7 13 L 7 14 L 8 14 z M 8 13 L 9 13 L 9 12 L 8 12 L 8 13 z M 8 12 L 8 11 L 7 11 L 7 12 L 8 12 z M 8 11 L 9 11 L 9 10 L 8 10 L 8 11 z M 8 10 L 8 9 L 7 9 L 7 10 L 8 10 z M 8 9 L 9 9 L 9 8 L 8 8 L 8 9 z M 8 8 L 8 7 L 7 7 L 7 8 L 8 8 z M 8 7 L 9 7 L 9 6 L 8 6 L 8 7 z M 8 6 L 8 5 L 7 5 L 7 6 L 8 6 z M 8 5 L 9 5 L 9 4 L 8 4 L 8 5 z M 8 4 L 8 3 L 7 3 L 7 4 L 8 4 z"/>
 <path style="opacity:0.3;fill:#363636" d="M 11,1 H 15 V 15 H 11 Z"/>
</svg>
